public/Home.svg

<svg width="100%" height="100%">
    <title>Home</title>
    <desc>Back to JasonNathan.com's home page</desc>
    <defs></defs>
    <g stroke="none" stroke-width="1" fill="none" fill-rule="evenodd">
        <path fill="#00FFFF" d="M12.1263525,1.27025677 L0.28125,14.0623847 L1.59104499,15.4768988 L2.75847096,14.2161362 L2.75847096,24.6097402 L2.75847096,25.59375 L3.66963269,25.59375 L10.0477648,25.59375 L10.9589265,25.59375 L10.9589265,24.6097402 L10.9589265,15.7536516 L14.6035735,15.7536516 L14.6035735,24.6097402 L14.6035735,25.59375 L15.5147352,25.59375 L21.8928673,25.59375 L22.804029,25.59375 L22.804029,24.6097402 L22.804029,14.2161362 L23.971455,15.4768988 L25.28125,14.0623847 L13.4361475,1.27025677 L12.78125,0.59375 L12.1263525,1.27025677 Z M20.9817056,12.2481165 L20.9817056,23.6257303 L16.4258969,23.6257303 L16.4258969,14.7696418 L16.4258969,13.7856319 L15.5147352,13.7856319 L10.0477648,13.7856319 L9.13660308,13.7856319 L9.13660308,14.7696418 L9.13660308,23.6257303 L4.58079442,23.6257303 L4.58079442,12.2481165 L12.78125,3.39202798 L20.9817056,12.2481165 Z" id="Shape"></path>
    </g>
</svg>

<svg><title>Home</title><desc>Back to JasonNathan.com&apos;s home page</desc><path fill="#0FF" d="M12.126 1.27L.281 14.062l1.31 1.415 1.167-1.26v11.377h8.2v-9.84h3.646v9.84h8.2V14.216l1.167 1.26 1.31-1.414L13.436 1.27l-.655-.676-.655.676zm8.856 10.978v11.378h-4.556v-9.84H9.137v9.84H4.58V12.248l8.2-8.856 8.2 8.856z" fill-rule="evenodd"/></svg>
